lib/brands/icons/google-cloud.svg

<svg xmlns="http://www.w3.org/2000/svg" fill="none" aria-hidden="true" viewBox="0 0 48 48"><g id="google-cloud-Icon"><g id="Group"><path id="Vector" fill="#EA4335" d="M30.6022 16.8L34.0792 13.3229L34.3109 11.8589C27.9748 6.09747 17.9028 6.75075 12.1911 13.222C10.6045 15.0193 9.42746 17.2601 8.7998 19.574L10.0451 19.3986L16.999 18.2518L17.5359 17.7028C20.6292 14.3056 25.8593 13.8486 29.4309 16.739L30.6022 16.8Z"/><path id="Vector_2" fill="#4285F4" d="M39.0323 19.4718C38.2331 16.5287 36.5923 13.8829 34.3109 11.859L29.4309 16.739C31.4916 18.4227 32.6655 20.9593 32.6152 23.6198V24.486C35.0138 24.486 36.9584 26.4305 36.9584 28.8291C36.9584 31.2279 35.0138 33.1237 32.6152 33.1237H23.9166L23.0625 34.0509V39.2602L23.9166 40.0776H32.6152C38.8542 40.1262 43.9514 35.1566 44 28.9176C44.0294 25.1359 42.1649 21.5905 39.0323 19.4718Z"/><path id="Vector_3" fill="#34A853" d="M15.23 40.0776H23.9164V33.1236H15.23C14.6111 33.1234 14.0117 32.9905 13.4489 32.7333L12.2166 33.1114L8.71516 36.5884L8.41016 37.7719C10.3738 39.2545 12.7695 40.0883 15.23 40.0776Z"/><path id="Vector_4" fill="#FBBC05" d="M15.2297 17.5199C8.99052 17.557 3.96302 22.6452 4.0002 28.8842C4.02099 32.3683 5.64817 35.648 8.40989 37.7719L13.4486 32.7333C11.2626 31.7456 10.2911 29.173 11.2788 26.987C12.2663 24.8011 14.8391 23.8297 17.0249 24.8172C17.9882 25.2524 18.7596 26.0239 19.1947 26.987L24.2335 21.9485C22.0896 19.1458 18.7583 17.5072 15.2297 17.5199Z"/></g></g></svg>

<svg xmlns="http://www.w3.org/2000/svg" fill="none" aria-hidden="true" viewBox="0 0 48 48"><path fill="#EA4335" d="m30.602 16.8 3.477-3.477.232-1.464c-6.336-5.762-16.409-5.108-22.12 1.363-1.587 1.797-2.764 4.038-3.391 6.352l1.245-.175 6.954-1.147.537-.55c3.093-3.396 8.323-3.853 11.895-.963l1.17.061Z"/><path fill="#4285F4" d="M39.032 19.472a15.664 15.664 0 0 0-4.721-7.613l-4.88 4.88a8.674 8.674 0 0 1 3.184 6.88v.867a4.343 4.343 0 0 1 4.343 4.343c0 2.399-1.944 4.295-4.343 4.295h-8.699l-.854.927v5.21l.854.817h8.699c6.239.048 11.336-4.921 11.385-11.16a11.298 11.298 0 0 0-4.968-9.446Z"/><path fill="#34A853" d="M15.23 40.078h8.686v-6.954H15.23a4.262 4.262 0 0 1-1.781-.39l-1.233.377-3.501 3.477-.305 1.184c1.963 1.483 4.36 2.316 6.82 2.306Z"/><path fill="#FBBC05" d="M15.23 17.52C8.99 17.557 3.963 22.645 4 28.884a11.297 11.297 0 0 0 4.41 8.888l5.039-5.039a4.343 4.343 0 1 1 5.746-5.746l5.038-5.038a11.285 11.285 0 0 0-9.003-4.43Z"/></svg>
